lib/brands/icons/glitch.svg

<svg xmlns="http://www.w3.org/2000/svg" fill="none" aria-hidden="true" viewBox="0 0 48 48"><g id="glitch-Icon"><g id="Group"><path id="Vector" fill="url(#paint0_linear_94_17888)" fill-rule="evenodd" d="M16.13 11.0159C12.3562 10.258 3.48325 14.1213 4.02362 18.4563C5.36604 18.8554 6.53507 19.3434 6.34402 19.8435H43.2705C43.4924 18.3648 42.3322 17.2311 43.1172 15.9972C43.365 15.6075 43.5536 15.1629 43.6847 14.7197V12.3205C43.6652 12.3028 43.6437 12.2877 43.621 12.2763C34.4517 15.2437 38.9046 14.6163 29.1186 12.2776C27.4205 10.1463 21.7841 8.60278 19.1566 8.43064C18.1478 8.43064 16.13 11.0159 16.13 11.0159Z" clip-rule="evenodd"/><path id="Vector_2" fill="url(#paint1_linear_94_17888)" fill-rule="evenodd" d="M28.2995 18.5824V19.7173H6.36417C6.38435 20.0528 5.8301 20.3971 4.33887 20.7262C5.66301 22.3656 9.57174 23.9413 10.9596 24.1311C10.7111 24.1828 10.4356 24.2749 10.1424 24.4004C14.5801 24.959 19.8269 25.1482 22.4361 25.2031H31.0449C30.9522 25.1823 30.857 25.1614 30.7586 25.14C28.8436 24.7793 29.6091 25.0398 28.6778 24.5095C41.0062 21.5415 33.8634 21.9804 43.621 24.1311C43.9369 23.5637 42.4236 22.1765 43.1172 20.4116C43.3808 19.74 43.3165 19.1423 43.1841 18.5824H28.2995Z" clip-rule="evenodd"/><path id="Vector_3" fill="url(#paint2_linear_94_17888)" fill-rule="evenodd" d="M19.7239 23.0592V24.1942C17.6627 24.1513 14.0995 24.1274 10.7349 24.1866C8.51227 24.8159 4.58588 28.1704 4.02344 30.1434V30.9467C4.04109 30.9883 4.0619 31.0287 4.08649 31.0671C5.2593 31.4158 6.2997 31.832 6.41698 32.2651H22.9397V31.1302H43.1984C42.9865 30.1907 42.5571 29.3621 43.1171 28.4819C43.6927 27.2422 43.9626 26.3916 43.9998 25.8311V25.582C43.8384 23.4975 39.3168 26.816 36.8116 26.8425C33.9742 26.3374 34.5417 25.9597 30.7584 25.14C28.8435 24.7793 29.609 25.0398 28.6776 24.5095C31.0214 23.9451 32.6614 23.5044 33.8481 23.1746V23.0592H19.7239Z" clip-rule="evenodd"/><path id="Vector_4" fill="#974DFF" fill-rule="evenodd" d="M18.2107 14.1055H18.2738C19.7852 16.7822 18.8223 18.8371 18.0215 21.4829C17.7958 22.0182 18.6105 22.4325 18.8413 21.8612C19.4838 19.4033 20.5015 16.7015 19.2826 14.2316H19.4087C25.2431 14.2764 31.1475 15.3357 36.4334 17.8888C36.7846 17.9682 37.9145 18.8371 38.1358 18.141C35.5897 15.1295 25.682 13.4145 21.4895 13.5374C21.3073 13.5721 20.871 13.5166 20.3722 13.4617C19.9813 13.4182 19.5512 13.3754 19.1735 13.3754C18.4718 13.3754 17.9534 13.5254 18.2107 14.1055Z" clip-rule="evenodd"/><path id="Vector_5" fill="#F1A5FF" fill-rule="evenodd" d="M18.211 14.1055H18.2741C19.1852 15.8294 19.4191 17.9367 18.5263 19.7174H19.4091C19.8681 17.9285 20.0219 16.0117 19.2199 14.2947C25.1237 14.3123 31.1132 15.279 36.4337 17.9518C36.7836 18.0136 37.9804 18.9626 38.1362 18.204C35.4601 15.1358 25.8015 13.4151 21.4898 13.5374C21.2818 13.5771 20.8492 13.5191 20.3637 13.4605C19.9891 13.4157 19.5825 13.3703 19.2237 13.3703C18.5641 13.3703 18.0635 13.5223 18.211 14.1055Z" clip-rule="evenodd"/><path id="Vector_6" fill="#974DFF" fill-rule="evenodd" d="M15.9408 14.4208H16.0039C17.2284 16.0873 17.1742 18.1019 16.3822 19.9065C16.1168 20.3454 16.7763 20.7842 17.0128 20.2848C17.4554 19.351 17.7606 18.2955 17.7694 17.2582C17.7782 16.0911 17.2454 14.8874 16.6344 13.9164C16.5544 13.772 16.4383 13.7127 16.3192 13.7127C16.014 13.7127 15.6943 14.1024 15.9408 14.4208Z" clip-rule="evenodd"/><path id="Vector_7" fill="#F1A5FF" fill-rule="evenodd" d="M17.2651 19.7174C17.6308 18.1915 17.9019 16.5691 17.0759 15.1145C16.9605 14.8755 16.6201 14.1857 16.6346 13.9164C16.3716 13.4296 15.6717 13.9139 15.941 14.3578H16.004C17.1251 15.9588 17.2651 17.9538 16.4454 19.7174H17.2651Z" clip-rule="evenodd"/><path id="Vector_8" fill="#F1A5FF" fill-rule="evenodd" d="M15.9408 14.3577H16.0039C17.1244 15.9587 17.265 17.9544 16.4453 19.7173H17.265C17.6307 18.1914 17.9018 16.569 17.0758 15.1144C16.9604 14.8754 16.6193 14.1856 16.6344 13.9164C16.5563 13.772 16.4402 13.7133 16.3223 13.7133C16.0417 13.7133 15.7517 14.0456 15.9408 14.3577Z" clip-rule="evenodd"/><path id="Vector_9" fill="url(#paint3_linear_94_17888)" fill-rule="evenodd" d="M22.8767 31.1302V32.2651H6.41707C6.51291 32.6201 5.98704 32.9871 4.40186 33.3371C7.45557 36.3044 11.2565 37.2414 14.616 36.4898C15.1413 38.8575 19.5645 40.2125 22.4984 39.2642C22.5388 38.6582 22.431 38.0529 22.1831 37.4986C26.2836 38.1967 36.2903 35.0502 36.8117 34.7873C37.284 34.6997 38.7368 35.2186 40.1813 35.7382C41.8226 36.3284 43.4532 36.9179 43.621 36.6159C43.9369 36.0484 42.4236 34.6612 43.1171 32.8957C43.3706 32.25 43.3208 31.6718 43.1985 31.1302H22.8767Z" clip-rule="evenodd"/><path id="Vector_10" fill="#373FFF" fill-rule="evenodd" d="M18.2107 26.7164H18.2738C19.7997 29.4088 18.7933 31.4896 18.0215 34.1568C17.7958 34.6927 18.6105 35.1064 18.8413 34.5351C19.5311 32.1062 20.475 29.4119 19.2826 26.968L19.4087 26.9055C25.2413 26.9528 31.1526 27.9144 36.4334 30.4996C36.7846 30.5791 37.9145 31.4473 38.1358 30.7518C35.5897 27.741 25.682 26.0253 21.4895 26.1489C21.3073 26.1836 20.8716 26.1281 20.3735 26.0732C19.9819 26.0297 19.5512 25.9862 19.1735 25.9862C18.4718 25.9862 17.9534 26.1369 18.2107 26.7164Z" clip-rule="evenodd"/><path id="Vector_11" fill="#F1A5FF" fill-rule="evenodd" d="M18.211 26.7164H18.2741C19.177 28.422 19.4185 30.5034 18.5263 32.2651H19.4091C19.8713 30.4769 20.022 28.5594 19.2199 26.8425C25.1174 26.8627 31.0899 27.9201 36.4337 30.4996C36.7837 30.5791 37.9161 31.448 38.1362 30.7518C35.5907 27.741 25.6823 26.0247 21.4899 26.1489C21.3076 26.1836 20.8726 26.1281 20.3738 26.0732C19.9822 26.0297 19.5516 25.9862 19.1739 25.9862C18.4721 25.9862 17.9538 26.1369 18.211 26.7164Z" clip-rule="evenodd"/><path id="Vector_12" fill="#373FFF" fill-rule="evenodd" d="M15.941 27.0318H16.0041C17.2286 28.6983 17.1744 30.7129 16.3824 32.5175C16.1169 32.9563 16.7765 33.3952 17.0129 32.8958C17.4556 31.962 17.7608 30.9071 17.7696 29.8692C17.7942 28.6693 17.1952 27.494 16.6346 26.4643C16.3231 25.9163 15.5129 26.598 15.941 27.0318Z" clip-rule="evenodd"/><path id="Vector_13" fill="#F1A5FF" fill-rule="evenodd" d="M17.2652 32.2651C17.4279 31.2329 17.8169 30.1844 17.5805 29.1124C17.5489 28.4888 15.9858 24.7907 15.8149 26.9686H16.0041C17.1359 28.5695 17.2664 30.5614 16.4455 32.3282L17.2652 32.2651Z" clip-rule="evenodd"/><path id="Vector_14" fill="#F1A5FF" fill-rule="evenodd" d="M15.8149 26.968H16.0041C17.1359 28.5695 17.2664 30.5614 16.4455 32.3282L17.2652 32.2651C17.4279 31.2336 17.8169 30.1843 17.5805 29.1124C17.5559 28.6275 16.6075 26.2889 16.105 26.2889C15.9606 26.2889 15.8534 26.4818 15.8149 26.968Z" clip-rule="evenodd"/><path id="Vector_15" fill="black" fill-rule="evenodd" d="M10.8333 14.8621C11.7735 14.8621 12.5358 15.6244 12.5358 16.5646C12.5358 17.5047 11.7735 18.267 10.8333 18.267C9.89319 18.267 9.13086 17.5047 9.13086 16.5646C9.13086 15.6244 9.89319 14.8621 10.8333 14.8621Z" clip-rule="evenodd"/><path id="Vector_16" fill="white" fill-rule="evenodd" d="M9.06787 16.4385C9.10255 15.429 9.94874 14.6389 10.9582 14.6742C11.9677 14.7089 12.7578 15.5557 12.7225 16.5646C12.6891 17.5489 11.8814 18.3295 10.8964 18.3301C9.95883 18.402 9.14038 17.7002 9.0685 16.7632C9.06787 16.76 9.06787 16.7569 9.06787 16.7537C9.16624 17.4612 9.8075 17.9638 10.5181 17.8887C11.3189 17.8887 11.9684 17.2399 11.9684 16.4385C11.9684 15.6377 11.3189 14.9882 10.5181 14.9882C9.71733 14.9882 9.06787 15.6377 9.06787 16.4385Z" clip-rule="evenodd"/><path id="Vector_17" fill="white" fill-rule="evenodd" d="M9.82475 16.4385C10.1028 16.4385 10.3292 16.6642 10.3292 16.9429C10.3292 17.2216 10.1028 17.4473 9.82475 17.4473C9.54605 17.4473 9.32031 17.2216 9.32031 16.9429C9.32031 16.6642 9.54605 16.4385 9.82475 16.4385Z" clip-rule="evenodd"/><path id="Vector_18" fill="black" fill-rule="evenodd" d="M10.8333 27.4733C11.7735 27.4733 12.5358 28.235 12.5358 29.1751C12.5358 30.1152 11.7735 30.8776 10.8333 30.8776C9.89319 30.8776 9.13086 30.1152 9.13086 29.1751C9.13086 28.235 9.89319 27.4733 10.8333 27.4733Z" clip-rule="evenodd"/><path id="Vector_19" fill="white" fill-rule="evenodd" d="M9.06787 28.9862C9.10255 27.9767 9.94874 27.1866 10.9582 27.2219C11.9677 27.2566 12.7578 28.1034 12.7225 29.1123C12.6891 30.0972 11.8814 30.8772 10.8964 30.8778C9.95883 30.9497 9.14038 30.2485 9.0685 29.3109C9.06787 29.3078 9.06787 29.3046 9.06787 29.3015C9.13345 30.0297 9.77786 30.567 10.5061 30.5008C10.5106 30.5001 10.5137 30.4995 10.5181 30.4995C11.3189 30.4989 11.9677 29.8488 11.9671 29.048C11.9665 28.2472 11.3164 27.5984 10.515 27.599C9.7394 27.6003 9.10192 28.2113 9.06787 28.9862Z" clip-rule="evenodd"/><path id="Vector_20" fill="white" fill-rule="evenodd" d="M9.82475 29.0496C10.1028 29.0496 10.3292 29.2747 10.3292 29.5541C10.3292 29.8321 10.1028 30.0585 9.82475 30.0585C9.54605 30.0585 9.32031 29.8321 9.32031 29.5541C9.32031 29.2747 9.54605 29.0496 9.82475 29.0496Z" clip-rule="evenodd"/></g></g><defs><linearGradient id="paint0_linear_94_17888" x1="23.3182" x2="23.3182" y1="8.43064" y2="19.7741" gradientUnits="userSpaceOnUse"><stop stop-color="#E459FF"/><stop offset="1" stop-color="#914DFF"/></linearGradient><linearGradient id="paint1_linear_94_17888" x1="13.6301" x2="25.2482" y1="21.6706" y2="29.4292" gradientUnits="userSpaceOnUse"><stop stop-color="#F0A5FF"/><stop offset="1" stop-color="#FF676B"/></linearGradient><linearGradient id="paint2_linear_94_17888" x1="24.0116" x2="24.0116" y1="22.8575" y2="32.5489" gradientUnits="userSpaceOnUse"><stop stop-color="#6E3BFF"/><stop offset="1" stop-color="#3633FF"/></linearGradient><linearGradient id="paint3_linear_94_17888" x1="20.3307" x2="23.3219" y1="35.1533" y2="38.7355" gradientUnits="userSpaceOnUse"><stop stop-color="#F0A5FF"/><stop offset="1" stop-color="#FF676B"/></linearGradient></defs></svg>

<svg xmlns="http://www.w3.org/2000/svg" fill="none" aria-hidden="true" viewBox="0 0 48 48"><g fill-rule="evenodd" clip-rule="evenodd"><path fill="url(#a)" d="M16.13 11.016c-3.774-.758-12.647 3.105-12.106 7.44 1.342.4 2.511.887 2.32 1.387H43.27c.222-1.478-.938-2.612-.153-3.846.248-.39.437-.834.568-1.277v-2.4a.288.288 0 0 0-.064-.044c-9.17 2.968-4.716 2.34-14.502.002-1.698-2.132-7.335-3.675-9.962-3.847-1.01 0-3.027 2.585-3.027 2.585Z"/><path fill="url(#b)" d="M28.3 18.582v1.135H6.363c.02.336-.534.68-2.025 1.01 1.324 1.639 5.233 3.214 6.62 3.404a4.395 4.395 0 0 0-.817.27c4.438.558 9.685.747 12.294.802h8.609l-.286-.063c-1.915-.36-1.15-.1-2.081-.63 12.328-2.969 5.185-2.53 14.943-.379.316-.567-1.197-1.954-.504-3.72.264-.671.2-1.269.067-1.829H28.3Z"/><path fill="url(#c)" d="M19.724 23.06v1.134a257.918 257.918 0 0 0-8.99-.007c-2.222.629-6.148 3.983-6.71 5.956v.804a.808.808 0 0 0 .062.12c1.173.349 2.214.765 2.331 1.198H22.94V31.13h20.258c-.212-.94-.64-1.768-.08-2.648.575-1.24.845-2.09.882-2.65v-.25c-.162-2.085-4.683 1.234-7.188 1.26-2.838-.505-2.27-.882-6.054-1.702-1.915-.36-1.149-.1-2.08-.63a148.882 148.882 0 0 0 5.17-1.335v-.116H19.724Z"/><path fill="#974DFF" d="M18.21 14.105h.064c1.511 2.677.548 4.732-.253 7.378-.225.535.59.95.82.378.643-2.458 1.66-5.16.442-7.63h.126c5.834.045 11.739 1.105 17.024 3.658.352.08 1.481.948 1.703.252-2.546-3.011-12.454-4.726-16.647-4.604-.182.035-.618-.02-1.117-.075a11.35 11.35 0 0 0-1.198-.087c-.702 0-1.22.15-.963.73Z"/><path fill="#F1A5FF" d="M18.211 14.105h.063c.911 1.724 1.145 3.832.252 5.612h.883c.46-1.788.613-3.705-.19-5.422 5.905.017 11.894.984 17.215 3.657.35.062 1.546 1.01 1.702.252-2.676-3.068-12.335-4.789-16.646-4.667-.208.04-.64-.018-1.126-.077-.375-.044-.782-.09-1.14-.09-.66 0-1.16.152-1.013.736Z"/><path fill="#974DFF" d="M15.94 14.42h.064c1.224 1.667 1.17 3.682.378 5.487-.265.438.394.877.63.378.443-.934.749-1.99.757-3.027.01-1.167-.524-2.37-1.135-3.342-.08-.144-.196-.203-.315-.203-.305 0-.625.39-.378.708Z"/><path fill="#F1A5FF" d="M17.265 19.717c.366-1.525.637-3.148-.19-4.602-.114-.24-.455-.93-.44-1.199-.263-.486-.963-.002-.694.442h.063c1.121 1.6 1.261 3.596.441 5.36h.82Z"/><path fill="#F1A5FF" d="M15.94 14.358h.064c1.12 1.6 1.261 3.596.441 5.36h.82c.366-1.527.637-3.149-.19-4.604-.115-.239-.456-.928-.44-1.198-.079-.144-.195-.203-.313-.203-.28 0-.57.333-.381.645Z"/><path fill="url(#d)" d="M22.877 31.13v1.135H6.417c.096.355-.43.722-2.015 1.072 3.054 2.967 6.855 3.904 10.214 3.153.525 2.367 4.948 3.722 7.882 2.774a3.716 3.716 0 0 0-.315-1.765c4.1.698 14.107-2.449 14.629-2.712.472-.087 1.925.432 3.37.951 1.64.59 3.271 1.18 3.439.878.316-.568-1.197-1.955-.504-3.72.254-.646.204-1.224.082-1.766H22.877Z"/><path fill="#373FFF" d="M18.21 26.716h.064c1.526 2.693.52 4.774-.253 7.44-.225.537.59.95.82.38.69-2.43 1.634-5.124.442-7.568l.126-.063c5.832.048 11.744 1.01 17.024 3.595.352.08 1.481.947 1.703.252-2.546-3.011-12.454-4.727-16.647-4.603-.182.035-.617-.02-1.116-.076a11.392 11.392 0 0 0-1.2-.087c-.701 0-1.22.15-.962.73Z"/><path fill="#F1A5FF" d="M18.211 26.716h.063c.903 1.706 1.145 3.787.252 5.55h.883c.462-1.79.613-3.707-.19-5.423 5.898.02 11.87 1.077 17.215 3.657.35.08 1.482.948 1.702.252-2.545-3.011-12.454-4.727-16.646-4.603-.182.035-.617-.02-1.116-.076a11.39 11.39 0 0 0-1.2-.087c-.702 0-1.22.15-.963.73Z"/><path fill="#373FFF" d="M15.941 27.032h.063c1.225 1.666 1.17 3.68.378 5.485-.265.44.394.878.63.379.444-.934.749-1.989.758-3.027.024-1.2-.575-2.375-1.135-3.405-.312-.548-1.122.134-.694.568Z"/><path fill="#F1A5FF" d="M17.265 32.265c.163-1.032.552-2.08.316-3.153-.032-.623-1.595-4.321-1.766-2.143h.19c1.13 1.6 1.261 3.592.44 5.36l.82-.064Z"/><path fill="#F1A5FF" d="M15.815 26.968h.19c1.13 1.602 1.261 3.593.44 5.36l.82-.063c.163-1.031.552-2.08.316-3.153-.025-.484-.973-2.823-1.476-2.823-.144 0-.252.193-.29.679Z"/><path fill="#000" d="M10.833 14.862a1.703 1.703 0 1 1 0 3.405 1.703 1.703 0 0 1 0-3.405Z"/><path fill="#fff" d="M9.068 16.439a1.828 1.828 0 1 1 1.828 1.891 1.703 1.703 0 0 1-1.828-1.567v-.01c.098.708.74 1.21 1.45 1.136a1.45 1.45 0 1 0-1.45-1.45Z"/><path fill="#fff" d="M9.825 16.439a.505.505 0 1 1 0 1.009.505.505 0 0 1 0-1.01Z"/><path fill="#000" d="M10.833 27.473a1.702 1.702 0 1 1 .001 3.404 1.702 1.702 0 0 1 0-3.404Z"/><path fill="#fff" d="M9.068 28.986a1.828 1.828 0 1 1 3.655.126 1.827 1.827 0 0 1-1.827 1.766 1.702 1.702 0 0 1-1.828-1.567v-.01c.065.729.71 1.266 1.438 1.2l.012-.002a1.45 1.45 0 1 0-1.45-1.513Z"/><path fill="#fff" d="M9.825 29.05a.504.504 0 1 1 0 1.008.504.504 0 0 1 0-1.008Z"/></g><defs><linearGradient id="a" x1="23.318" x2="23.318" y1="8.431" y2="19.774" gradientUnits="userSpaceOnUse"><stop stop-color="#E459FF"/><stop offset="1" stop-color="#914DFF"/></linearGradient><linearGradient id="b" x1="13.63" x2="25.248" y1="21.671" y2="29.429" gradientUnits="userSpaceOnUse"><stop stop-color="#F0A5FF"/><stop offset="1" stop-color="#FF676B"/></linearGradient><linearGradient id="c" x1="24.012" x2="24.012" y1="22.858" y2="32.549" gradientUnits="userSpaceOnUse"><stop stop-color="#6E3BFF"/><stop offset="1" stop-color="#3633FF"/></linearGradient><linearGradient id="d" x1="20.331" x2="23.322" y1="35.153" y2="38.736" gradientUnits="userSpaceOnUse"><stop stop-color="#F0A5FF"/><stop offset="1" stop-color="#FF676B"/></linearGradient></defs></svg>
